X:1
T:Despedida de Coimbra
T:Despedida de Coimbra
T:Barcarola
T:Galáxia Sonora Coimbrã 2020 (A. Caetano)
C:desconhecido
Z:Galáxia Sonora Coimbrã 2020 (A. Caetano)
%%score 1 2
L:1/8
M:3/4
K:G
V:1 treble-8 nm="Voz"
V:2 bass nm="Piano"
V:1
 !arpeggio![egbe']2 z2 z2[Q:1/4=140]"^Andantino" | !arpeggio![B^dfb]2 z2 z2 ||S z6 | z2 E2 G2 | %4
w: |||Já não|
 B4 E2 | c4 A2 | (BA) G2 z2 | z2 ^D2 E2 | F4 A2 | G4 F2 | F2 E2 z2 | z2 E2 G2 | B4 E2 | c4 A2 | %14
w: ou- ço|de Co-|im- * bra|os a-|le- gres,|do- ces|can- tos|é si-|lên- cio|tu- do a-|
 (BA) G2 z2 | z2 B2 c2 | B4 F2 | G4 F2 | F2 E2 z2 ||"^Estribilho\n" z2 e2 d2 | (cB) A2 z2 | %21
w: go- o- ra,|dei- xo|ri- o,|ve- jo|pran- tos.|Dei- xa,|dei- * xa,|
 z2 d2 c2 | (BA) G2 z2 | z2 A2 G2 | B4 F2 | G4 F2 | F2 E2 z2 | z2 e2 d2 | (cB) A2 z2 | z2 d2 c2 | %30
w: oh bar-|quei- * ro,|ir o|bar- co|len- ta|men- te|Dei- xa,|pá- * ra,|que a sau-|
 (BA) G2 z2 | z2 A2 G2 | B4 F2 | G4 F2 | F2 E2 z2 | z2 B2 c2 | (G2 A2) B2 | F2 G3 F | F2 E2 z2 | %39
w: da- * de|ir mais|lon- ge|não con-|sen- te,|ir mais|lon- * ge|não con- on-|sen- te|
 z2"^rall. molto" B2 !fermata!c2 | (!fermata!G2 !fermata!A2) !fermata!B2 | %41
w: ir mais|lon- * ge|
 !fermata!B,2{!fermata!C!fermata!B,!fermata!^A,!fermata!B,} !fermata!G3 !fermata!F | %42
w: não con- *|
 !fermata!F2 E2 z2!D.S.! || z6 |] %44
w: sen- te.||
V:2
 !arpeggio![E,G,B,E]2 z2 z2 | !arpeggio![B,,^D,F,B,]2 z2 z2 || [E,G,B,]2 z2 [E,G,B,]2 | %3
 [E,G,B,]2 z2 [E,G,B,]2 | [E,G,B,]2 z2 [E,G,B,]2 | [E,A,C]2 z2 [E,A,C]2 | [E,G,B,]2 z2 [E,G,B,]2 | %7
 [E,G,B,]2 z2 [E,G,B,]2 | [B,,^D,F,B,]2 z2 [B,,D,F,B,]2 | [B,,^D,F,B,]2 z2 [B,,D,F,B,]2 | %10
 [E,G,B,]2 z2 [E,G,B,]2 | [E,G,B,]2 z2 [E,G,B,]2 | [E,G,B,]2 z2 [E,G,B,]2 | [E,A,C]2 z2 [E,A,C]2 | %14
 [E,G,B,]2 z2 [E,G,B,]2 | [E,G,B,]2 z2 [E,G,B,]2 | [B,,^D,F,B,]2 z2 [B,,D,F,B,]2 | %17
 [B,,^D,F,B,]2 z2 [B,,D,F,B,]2 | [E,G,B,]2 z2 [E,G,B,]2 || [E,G,B,]2 z2 [E,G,B,]2 | %20
 [E,A,C]2 z2 [E,A,C]2 | [E,A,C]2 z2 [E,A,C]2 | [E,G,B,]2 z2 [E,G,B,]2 | [E,G,B,]2 z2 [E,G,B,]2 | %24
 [B,,^D,F,B,]2 z2 [B,,D,F,B,]2 | [B,,^D,F,B,]2 z2 [B,,D,F,B,]2 | [E,G,B,]2 z2 [E,G,B,]2 | %27
 [E,G,B,]2 z2 [E,G,B,]2 | [E,A,C]2 z2 [E,A,C]2 | [E,A,C]2 z2 [E,A,C]2 | [E,G,B,]2 z2 [E,G,B,]2 | %31
 [E,G,B,]2 z2 [E,G,B,]2 | [B,,^D,F,B,]2 z2 [B,,D,F,B,]2 | [B,,^D,F,B,]2 z2 [B,,D,F,B,]2 | %34
 [E,G,B,]2 z2 [E,G,B,]2 | [E,G,B,]2 z2 [E,G,B,]2 | [A,,C,F,]2 z2 [A,,C,F,]2 | %37
 [B,,^D,A,]2 z2 [B,,D,A,]2 | [B,,E,G,]2 z2 [B,,E,G,]2 | [B,,E,G,]2 z2 [B,,E,G,]2 | %40
 [B,,,A,,C,F,]2 z2 [C,,A,,C,F,]2 | [B,,^D,F,A,]4 z2 | [E,G,]2 z2 [E,G,B,]2 || [E,G,B,]2 z4 |] %44

